X: 33334
T: Queen Maeve Suite
R: reel
M: 4/4
K: Aminor
d2 ed c2 dc|A2 Gc ADFA|d3 A cdeg|a2 gbag ec|d2 ed c2 dc|
A2 Gc ADFA|d2 cBAG FE|D8||d3 A cdeg|a2 gedc Ac|
d3 Acde g|a2 gbag ec|d2 ed cdeg|a{b}age dcAG|{A}d2 cB AGFE|
D4 E F2 z||{g}a2 d2 A c3|{d}A2 GcAD FA|d3 A cdeg|a2 gb agec|
d2 ed cAdc|A2 GcAD FA|d3 c AGFE|D3 F ADFA||d3 A cAdc|
A2Gc ADFA|d3 A cdeg|a2 gb agec|d2 ed cedc|A2 Gc ADFA|
d3 c AGFE|D (3DDD D3||d3 A cdeg|a3 ecdc A|c d2 e dcdg|
a2 gbag ec|d2 ed c2 c'b|aged dcAc|d2 cBAG FE|D3 EFDF A||d3 A c2 eg|
a3 ecdc A2|d3 A cdeg|a2 gb agec|d2 ad c3 e|ag e2 dc A2|
(dcBA GFED|D8)||

